user-logos/centricular.svg

<?xml version="1.0" encoding="UTF-8" standalone="no"?>
<svg
   xmlns:dc="http://purl.org/dc/elements/1.1/"
   xmlns:cc="http://creativecommons.org/ns#"
   xmlns:rdf="http://www.w3.org/1999/02/22-rdf-syntax-ns#"
   xmlns:svg="http://www.w3.org/2000/svg"
   xmlns="http://www.w3.org/2000/svg"
   xmlns:sodipodi="http://sodipodi.sourceforge.net/DTD/sodipodi-0.dtd"
   xmlns:inkscape="http://www.inkscape.org/namespaces/inkscape"
   width="1926.0548"
   height="317.22986"
   viewBox="0 0 1540.8439 253.78388"
   version="1.1"
   id="svg2"
   inkscape:version="0.48.5 r10040"
   sodipodi:docname="centricular-logo-with-text.svg">
  <metadata
     id="metadata45">
    <rdf:RDF>
      <cc:Work
         rdf:about="">
        <dc:format>image/svg+xml</dc:format>
        <dc:type
           rdf:resource="http://purl.org/dc/dcmitype/StillImage" />
        <dc:title />
      </cc:Work>
    </rdf:RDF>
  </metadata>
  <sodipodi:namedview
     pagecolor="#ffffff"
     bordercolor="#666666"
     borderopacity="1"
     objecttolerance="10"
     gridtolerance="10"
     guidetolerance="10"
     inkscape:pageopacity="0"
     inkscape:pageshadow="2"
     inkscape:window-width="2560"
     inkscape:window-height="1367"
     id="namedview43"
     showgrid="false"
     units="mm"
     inkscape:zoom="0.7375"
     inkscape:cx="676.65275"
     inkscape:cy="158.6149"
     inkscape:window-x="0"
     inkscape:window-y="0"
     inkscape:window-maximized="1"
     inkscape:current-layer="svg2"
     fit-margin-top="2"
     fit-margin-left="2"
     fit-margin-right="2"
     fit-margin-bottom="2" />
  <defs
     id="defs4">
    <clipPath
       id="clip1">
      <path
         d="m 6,6 221,0 0,244 -221,0 z"
         id="path7"
         inkscape:connector-curvature="0" />
    </clipPath>
    <clipPath
       id="clip2">
      <path
         d="M 249.22266,128 C 249.22266,194.94922 194.94922,249.22266 128,249.22266 61.050781,249.22266 6.777344,194.94922 6.777344,128 6.777344,61.050781 61.050781,6.777344 128,6.777344 194.94922,6.777344 249.22266,61.050781 249.22266,128"
         id="path10"
         inkscape:connector-curvature="0" />
    </clipPath>
    <clipPath
       id="clip3">
      <path
         d="m 86,29 162,0 0,183 -162,0 z"
         id="path13"
         inkscape:connector-curvature="0" />
    </clipPath>
    <clipPath
       id="clip4">
      <path
         d="M 249.22266,128 C 249.22266,194.94922 194.94922,249.22266 128,249.22266 61.050781,249.22266 6.777344,194.94922 6.777344,128 6.777344,61.050781 61.050781,6.777344 128,6.777344 194.94922,6.777344 249.22266,61.050781 249.22266,128"
         id="path16"
         inkscape:connector-curvature="0" />
    </clipPath>
    <clipPath
       id="clip5">
      <path
         d="m 72,67 117,0 0,117 -117,0 z"
         id="path19"
         inkscape:connector-curvature="0" />
    </clipPath>
    <clipPath
       id="clip6">
      <path
         d="M 249.22266,128 C 249.22266,194.94922 194.94922,249.22266 128,249.22266 61.050781,249.22266 6.777344,194.94922 6.777344,128 6.777344,61.050781 61.050781,6.777344 128,6.777344 194.94922,6.777344 249.22266,61.050781 249.22266,128"
         id="path22"
         inkscape:connector-curvature="0" />
    </clipPath>
  </defs>
  <g
     id="g25"
     clip-rule="nonzero"
     clip-path="url(#clip1)"
     transform="translate(-1.1080525,-1.1080603)">
    <g
       id="g27"
       clip-rule="nonzero"
       clip-path="url(#clip2)">
      <path
         inkscape:connector-curvature="0"
         id="path29"
         d="M 226.07422,199.25 C 198.72656,236.89062 152.24609,255.5625 106.45703,247.29297 60.667969,239.02344 23.652344,205.27734 11.199219,160.44531 -1.253906,115.61328 13.054688,67.609375 48.015625,36.910156 82.980469,6.210938 132.42969,-1.769531 175.27344,16.378906 139.57422,9.902344 103.05078,22.242188 78.59375,49.042969 54.136719,75.847656 45.183594,113.34766 54.894531,148.30469 c 9.714844,34.96093 36.722657,62.47265 71.499999,72.82031 34.77734,10.35156 72.43359,2.08594 99.67969,-21.875"
         style="fill:#de0021;fill-opacity:1;fill-rule:nonzero;stroke:none" />
    </g>
  </g>
  <g
     id="g31"
     clip-rule="nonzero"
     clip-path="url(#clip3)"
     transform="translate(-1.1080525,-1.1080603)">
    <g
       id="g33"
       clip-rule="nonzero"
       clip-path="url(#clip4)">
      <path
         inkscape:connector-curvature="0"
         id="path35"
         d="m 86.578125,61.9375 c 22.886715,-27.5 59.777345,-39.023438 94.246095,-29.433594 34.47265,9.589844 60.11328,38.503906 65.51172,73.875004 5.39843,35.36718 -10.44922,70.61718 -40.49219,90.05078 -30.03906,19.43359 -68.6875,19.4414 -98.73437,0.0195 25.92187,9.75 55.07031,5.02344 76.58593,-12.42188 21.51172,-17.4414 32.16406,-44.98047 27.98438,-72.35937 C 207.5,84.289062 189.11719,61.175781 163.38281,50.945312 137.64453,40.714844 108.41406,44.898438 86.578125,61.9375"
         style="fill:#51ba2b;fill-opacity:1;fill-rule:nonzero;stroke:none" />
    </g>
  </g>
  <g
     id="g37"
     clip-rule="nonzero"
     clip-path="url(#clip5)"
     transform="translate(-1.1080525,-1.1080603)">
    <g
       id="g39"
       clip-rule="nonzero"
       clip-path="url(#clip6)">
      <path
         inkscape:connector-curvature="0"
         id="path41"
         d="M 94.425781,80.109375 C 115.43359,63.238281 145.29297,63.0625 166.5,79.683594 c 21.20312,16.625 28.16016,45.664066 16.79297,70.089846 -11.3711,24.42968 -38.06641,37.80468 -64.44141,32.28515 -26.371091,-5.51953 -45.464841,-28.48047 -46.082029,-55.41406 4.730469,14.91016 18.125,25.39063 33.734379,26.39453 15.61328,1.00391 30.24218,-7.67187 36.83984,-21.85547 C 149.94531,117 147.16797,100.21875 136.34766,88.921875 125.52344,77.625 108.87891,74.125 94.425781,80.109375"
         style="fill:#4a4294;fill-opacity:1;fill-rule:nonzero;stroke:none" />
    </g>
  </g>
  <text
     xml:space="preserve"
     style="font-size:263.20001221px;font-style:normal;font-weight:normal;line-height:125%;letter-spacing:-0.44000167px;word-spacing:0px;fill:#000000;fill-opacity:1;stroke:none;font-family:Sans"
     x="255.94966"
     y="196.52718"
     id="text3049"
     sodipodi:linespacing="125%"><tspan
       sodipodi:role="line"
       id="tspan3051"
       x="255.94966"
       y="196.52718"
       style="font-size:208px;font-style:normal;font-variant:normal;font-weight:bold;font-stretch:normal;letter-spacing:-2.24000001px;font-family:DejaVu Sans;-inkscape-font-specification:DejaVu Sans Bold">Centricular</tspan></text>
  <text
     xml:space="preserve"
     style="font-size:32px;font-style:normal;font-weight:normal;line-height:125%;letter-spacing:0px;word-spacing:0px;fill:#000000;fill-opacity:1;stroke:none;font-family:Sans"
     x="-541.3114"
     y="204.99367"
     id="text3053"
     sodipodi:linespacing="125%"><tspan
       sodipodi:role="line"
       id="tspan3055"
       x="-541.3114"
       y="204.99367" /></text>
  <text
     xml:space="preserve"
     style="font-size:32px;font-style:normal;font-weight:normal;line-height:125%;letter-spacing:0px;word-spacing:0px;fill:#000000;fill-opacity:1;stroke:none;font-family:Sans"
     x="261.42374"
     y="518.46185"
     id="text3006"
     sodipodi:linespacing="125%"><tspan
       sodipodi:role="line"
       id="tspan3008"
       x="261.42374"
       y="518.46185" /></text>
</svg>

<svg xmlns="http://www.w3.org/2000/svg" width="1926.055" height="317.23" viewBox="0 0 1540.8439 253.78388"><defs><clipPath id="a"><path d="M6 6h221v244H6z"/></clipPath><clipPath id="b"><path d="M249.223 128c0 66.95-54.274 121.223-121.223 121.223C61.05 249.223 6.777 194.949 6.777 128 6.777 61.05 61.051 6.777 128 6.777c66.95 0 121.223 54.274 121.223 121.223"/></clipPath><clipPath id="c"><path d="M86 29h162v183H86z"/></clipPath><clipPath id="d"><path d="M249.223 128c0 66.95-54.274 121.223-121.223 121.223C61.05 249.223 6.777 194.949 6.777 128 6.777 61.05 61.051 6.777 128 6.777c66.95 0 121.223 54.274 121.223 121.223"/></clipPath><clipPath id="e"><path d="M72 67h117v117H72z"/></clipPath><clipPath id="f"><path d="M249.223 128c0 66.95-54.274 121.223-121.223 121.223C61.05 249.223 6.777 194.949 6.777 128 6.777 61.05 61.051 6.777 128 6.777c66.95 0 121.223 54.274 121.223 121.223"/></clipPath></defs><g clip-path="url(#a)" transform="translate(-1.108 -1.108)"><g clip-path="url(#b)"><path d="M226.074 199.25c-27.347 37.64-73.828 56.313-119.617 48.043-45.789-8.27-82.805-42.016-95.258-86.848C-1.254 115.613 13.055 67.61 48.016 36.91 82.98 6.21 132.43-1.77 175.273 16.38a105.413 105.413 0 0 0-96.68 32.664 105.414 105.414 0 0 0-23.698 99.262c9.714 34.96 36.722 62.472 71.5 72.82a105.408 105.408 0 0 0 99.68-21.875" fill="#de0021"/></g></g><g clip-path="url(#c)" transform="translate(-1.108 -1.108)"><g clip-path="url(#d)"><path d="M86.578 61.938c22.887-27.5 59.777-39.024 94.246-29.434 34.473 9.59 60.113 38.504 65.512 73.875 5.398 35.367-10.45 70.617-40.492 90.05-30.04 19.434-68.688 19.442-98.735.02a78 78 0 0 0 76.586-12.422 78 78 0 0 0 27.985-72.36 78.015 78.015 0 0 0-48.297-60.722 78.007 78.007 0 0 0-76.805 10.992" fill="#51ba2b"/></g></g><g clip-path="url(#e)" transform="translate(-1.108 -1.108)"><g clip-path="url(#f)"><path d="M94.426 80.11c21.008-16.872 50.867-17.047 72.074-.426 21.203 16.625 28.16 45.664 16.793 70.09-11.371 24.43-38.066 37.804-64.441 32.285-26.372-5.52-45.465-28.48-46.082-55.414a37.948 37.948 0 0 0 33.734 26.394c15.613 1.004 30.242-7.672 36.84-21.855a37.948 37.948 0 0 0-6.996-42.262 37.952 37.952 0 0 0-41.922-8.813" fill="#4a4294"/></g></g><text style="line-height:125%" x="255.95" y="196.527" font-size="263.2" letter-spacing="-.44" word-spacing="0" font-family="Sans"><tspan x="255.95" y="196.527" style="-inkscape-font-specification:DejaVu Sans Bold" font-size="208" font-weight="bold" letter-spacing="-2.24" font-family="DejaVu Sans">Centricular</tspan></text></svg>
